X: 450
T:Corrente in Em
M:3/4
L:1/8
Q:1/4=112
C:Quantz?
R:Corrente
N:sounds like telemann? quantz?
N:Posted to the woodenflute mailing list October 2001
Z:Clive Catterall
K:Eminor
e|e3 fea|gfge^df|e3 gfa|gfgbac'|BAB^d^ce|^d^cdfeg|
fefage|^d2 B2 b2|efgabe|ABcdec'|defgad|GABcdb|
cdefgc|FGABca|B^c^defB|EFGABg|B^c^defB|EFGABg|
fbagfe|fBAGFE|B4 z::f|f3 bag|fe^defa|ge'd'c'ba|
^gabc'd'b|c'agfed|^cdefge|fd'c'bag|fgabc'a|bgfedc|
Bcde=fd|ec'bag=f|efgabc'|fdefgB|cBAGFE|DFAcdf|g2 G2 b2|
Gbabc'b|Fagaba|Egfgag|fb^dfBA|Gbabc'b|Fagaba|
Egfgag|f2 B2 b2|e'bgbeb|Ac'dfga|Gbcefg|FaB^def|
EgFagf|GbBfe^d|EgFagf|GbBfg^d|ee'bagf|egBAGF|E4 z:|
<end>
<start>
